X: 47
T: Owls Hooting
C: Teton Sioux band 1911-1914
N: Derived from sioux047.krn
O: South Dakota, U.S.A.
N: Teton Sioux Music by Frances Densmore, 1918
Z: transcribed to **kern format by Craig Sapp
L: 1/8
M: 2/4
Q: 1/4=58
K: B clef=bass
%%linebreak <none>
E/ [I:setbarnb 1]| 
E2E B, | 
B,2B, (=C/ B,/) | 
B,2A, G, | 
G,2-G, (=C/ B,/) | 
B,2A, G, | 
G,2E, G, | 
G,2G, E, | 
E,2-E, (A,/ G,/) | 
G,2A, G, | 
G,2E,3/ G,/ | 
G,2A, G, | 
G,2-G,3/ G,/ | 
D C C A, | 
B,2A, B, | 
B,2A, G, | 
G,2-G, (=C/ B,/) | 
B,2A, G, | 
G,2E,3/ G,/ | 
G,2G, E, | 
E,2-E, (A,/ G,/) | 
G,2A, G, | 
G,2E,3/ G,/ | 
G,2A, G, | 
G,4 |]  



